contributed-vectors/the_powder_toy.svg

<?xml version="1.0" encoding="UTF-8" standalone="no"?>
<svg
   xmlns:dc="http://purl.org/dc/elements/1.1/"
   xmlns:cc="http://creativecommons.org/ns#"
   xmlns:rdf="http://www.w3.org/1999/02/22-rdf-syntax-ns#"
   xmlns:svg="http://www.w3.org/2000/svg"
   xmlns="http://www.w3.org/2000/svg"
   xmlns:sodipodi="http://sodipodi.sourceforge.net/DTD/sodipodi-0.dtd"
   xmlns:inkscape="http://www.inkscape.org/namespaces/inkscape"
   viewBox="0 0 192 192"
   version="1.1"
   id="svg16"
   sodipodi:docname="the_powder_toy.svg"
   inkscape:version="0.92.4 (5da689c313, 2019-01-14)">
  <metadata
     id="metadata20">
    <rdf:RDF>
      <cc:Work
         rdf:about="">
        <dc:format>image/svg+xml</dc:format>
        <dc:type
           rdf:resource="http://purl.org/dc/dcmitype/StillImage" />
        <dc:title></dc:title>
      </cc:Work>
    </rdf:RDF>
  </metadata>
  <sodipodi:namedview
     pagecolor="#ffffff"
     bordercolor="#666666"
     borderopacity="1"
     objecttolerance="10"
     gridtolerance="10"
     guidetolerance="10"
     inkscape:pageopacity="0"
     inkscape:pageshadow="2"
     inkscape:window-width="1920"
     inkscape:window-height="1017"
     id="namedview18"
     showgrid="true"
     inkscape:zoom="2.4583333"
     inkscape:cx="118.61998"
     inkscape:cy="90.305087"
     inkscape:window-x="-8"
     inkscape:window-y="-8"
     inkscape:window-maximized="1"
     inkscape:current-layer="svg16"
     inkscape:snap-global="false"
     showguides="false">
    <inkscape:grid
       type="xygrid"
       id="grid827"
       spacingx="4"
       spacingy="4" />
  </sodipodi:namedview>
  <defs
     id="defs4">
    <style
       id="style2">.a{fill:none;stroke:#b1b5bd;stroke-linecap:round;stroke-linejoin:round;isolation:isolate;opacity:0.63;}</style>
  </defs>
  <rect
     class="a"
     x="8"
     y="32"
     width="176"
     height="128"
     rx="10"
     id="rect14"
     style="fill:#ff837d;stroke:none;opacity:1" />
  <path
     style="fill:#f8c18c;stroke:none;stroke-width:1px;stroke-linecap:butt;stroke-linejoin:miter;stroke-opacity:1"
     d="M 33.978516 32 C 27.415301 34.961798 21.145973 38.887261 14.847656 42.304688 C 12.463316 43.598415 9.8093299 44.692099 8 46.708984 L 8 146.50781 C 18.736018 151.54984 33.679934 142.58526 45.966797 144.81445 C 51.963065 145.90235 56.969902 150.9202 63.050781 151.32227 C 76.883283 152.23688 89.663231 141.64065 103.52539 141.76367 C 117.51807 141.88785 130.26949 153.42477 144.20312 152.13477 C 156.55634 150.99109 171.13236 146.82836 177.9668 136.47461 C 180.72535 132.29558 182.70296 127.60669 184 122.63672 L 184 89.634766 C 182.96066 84.967979 181.5506 80.451714 179.79688 76.271484 C 176.97568 69.546827 169.90216 65.305359 163.72852 61.423828 C 152.80399 54.555287 140.63275 47.241887 127.72852 47.185547 C 120.75344 47.155093 112.42601 60.26251 108.20312 54.710938 C 103.65524 48.7321 124.60668 43.505096 121.62695 36.609375 C 120.8838 34.889563 119.96887 33.361586 118.9082 32 L 33.978516 32 z "
     id="path865" />
  <path
     style="fill:#f9de81;stroke:none;stroke-width:1px;stroke-linecap:butt;stroke-linejoin:miter;stroke-opacity:1"
     d="M 53.376953 32 C 48.873136 33.068703 44.424961 34.343335 40.068359 35.796875 C 34.026835 37.812574 27.453712 40.018957 23.185547 44.746094 C 19.802293 48.493162 21.054456 55.201983 17.492188 58.779297 C 15.20583 61.075312 10.851964 60.53958 8 61.890625 L 8 140.65039 C 14.623835 146.54786 26.429687 144.47474 35.59375 144.81445 C 40.367127 144.9914 45.110121 142.45177 49.830078 143.18555 C 54.897605 143.97337 58.739262 149.33436 63.865234 149.49219 C 72.121665 149.7464 78.924406 142.22775 87.050781 140.74609 C 96.455065 139.03143 106.42011 138.5703 115.72852 140.74609 C 122.43048 142.31263 127.37241 150.40536 134.23633 149.89844 C 149.29708 148.78616 163.62023 136.97757 171.45703 124.06836 C 177.84126 113.55191 179.19736 99.372347 176.13477 87.457031 C 173.58609 77.541151 166.64538 68.180841 158.0332 62.644531 C 150.93104 58.078937 141.53849 56.109556 133.2207 57.558594 C 124.61818 59.057236 119.57311 70.845234 110.84766 71.185547 C 105.30331 71.40179 101.4888 62.847951 96 63.660156 C 87.556566 64.909574 85.584681 84.069172 77.492188 81.355469 C 72.673422 79.739564 73.332895 71.088047 75.050781 66.304688 C 79.045287 55.182207 92.980533 50.898387 101.69531 42.916016 C 104.80702 40.065819 111.95986 38.240472 110.84766 34.169922 C 110.61949 33.33485 110.26014 32.619967 109.80078 32 L 53.376953 32 z "
     id="path861" />
  <path
     style="opacity:1;vector-effect:none;fill:#56595b;fill-opacity:1;fill-rule:evenodd;stroke:none;stroke-width:8;stroke-linecap:round;stroke-linejoin:round;stroke-miterlimit:4;stroke-dasharray:none;paint-order:stroke fill markers"
     d="m 172,32 v 112 c 0,0 0,4 -4,4 -53.33333,0 -160,0 -160,0 v 2 c 0,5.54 4.46,10 10,10 h 154 2 c 5.54,0 10,-4.46 10,-10 V 148 42 c 0,-5.54 -4.46,-10 -10,-10 z"
     id="rect840"
     inkscape:connector-curvature="0"
     sodipodi:nodetypes="ccscsscsscssc" />
  <path
     style="fill:#ffffff;stroke:none;stroke-width:1px;stroke-linecap:butt;stroke-linejoin:miter;stroke-opacity:1"
     d="M 27.236328 62.179688 C 20.305862 62.361641 13.399507 66.297381 8 71.539062 L 8 128.75781 C 11.94998 130.46068 17.33664 128.72738 21.763672 129.55859 C 35.322975 132.10445 48.047042 139.32828 61.830078 139.93164 C 78.243117 140.65013 94.015003 132.07496 110.44141 131.79688 C 118.16852 131.66607 125.70809 134.40872 133.42383 134.84766 C 155.37185 136.09627 164.54261 116.20879 165.15234 100.67773 C 165.85655 82.739926 151.38965 67.735212 138.91602 71.59375 C 130.9725 74.050964 120.87984 81.772914 111.45703 86.033203 C 98.825395 91.744286 86.243974 103.38534 72.609375 100.88086 C 53.57676 97.384844 48.57201 63.858196 29.289062 62.236328 C 28.606067 62.178882 27.920409 62.161727 27.236328 62.179688 z "
     id="path863" />
</svg>

<svg xmlns="http://www.w3.org/2000/svg" viewBox="0 0 192 192"><rect width="176" height="128" x="8" y="32" rx="10" style="fill:#ff837d;stroke:none;opacity:1;stroke-linecap:round;stroke-linejoin:round;isolation:isolate"/><path d="M33.979 32c-6.564 2.962-12.833 6.887-19.131 10.305-2.385 1.293-5.039 2.387-6.848 4.404v99.799c10.736 5.042 25.68-3.923 37.967-1.694 5.996 1.088 11.003 6.106 17.084 6.508 13.832.915 26.612-9.681 40.474-9.558 13.993.124 26.744 11.66 40.678 10.37 12.353-1.143 26.93-5.306 33.764-15.66 2.758-4.178 4.736-8.867 6.033-13.837V89.635c-1.04-4.667-2.45-9.183-4.203-13.364-2.821-6.724-9.895-10.966-16.068-14.847-10.925-6.869-23.096-14.182-36-14.238-6.976-.03-15.303 13.077-19.526 7.525-4.548-5.979 16.404-11.206 13.424-18.102A21.034 21.034 0 0 0 118.908 32h-84.93z" style="fill:#f8c18c;stroke:none;stroke-width:1px;stroke-linecap:butt;stroke-linejoin:miter;stroke-opacity:1"/><path d="M53.377 32a155.622 155.622 0 0 0-13.309 3.797c-6.041 2.016-12.614 4.222-16.882 8.95-3.384 3.746-2.132 10.455-5.694 14.032-2.286 2.296-6.64 1.76-9.492 3.112v78.76c6.624 5.897 18.43 3.824 27.594 4.163 4.773.177 9.516-2.362 14.236-1.628 5.068.787 8.91 6.148 14.035 6.306 8.257.254 15.06-7.264 23.186-8.746 9.404-1.715 19.37-2.176 28.678 0 6.701 1.567 11.643 9.66 18.507 9.152 15.061-1.112 29.384-12.92 37.221-25.83 6.384-10.516 7.74-24.696 4.678-36.611-2.549-9.916-9.49-19.276-18.102-24.812-7.102-4.566-16.495-6.535-24.812-5.086-8.603 1.498-13.648 13.286-22.373 13.627-5.545.216-9.36-8.338-14.848-7.526-8.443 1.25-10.415 20.41-18.508 17.695-4.819-1.615-4.16-10.267-2.441-15.05 3.994-11.123 17.93-15.407 26.644-23.389 3.112-2.85 10.265-4.676 9.153-8.746A6.465 6.465 0 0 0 109.8 32H53.377z" style="fill:#f9de81;stroke:none;stroke-width:1px;stroke-linecap:butt;stroke-linejoin:miter;stroke-opacity:1"/><path d="M172 32v112s0 4-4 4H8v2c0 5.54 4.46 10 10 10h156c5.54 0 10-4.46 10-10V42c0-5.54-4.46-10-10-10z" style="opacity:1;vector-effect:none;fill:#56595b;fill-opacity:1;fill-rule:evenodd;stroke:none;stroke-width:8;stroke-linecap:round;stroke-linejoin:round;stroke-miterlimit:4;stroke-dasharray:none;paint-order:stroke fill markers"/><path d="M27.236 62.18C20.306 62.362 13.4 66.297 8 71.54v57.218c3.95 1.703 9.337-.03 13.764.8 13.559 2.546 26.283 9.77 40.066 10.374 16.413.718 32.185-7.857 48.611-8.135 7.728-.13 15.267 2.612 22.983 3.05 21.948 1.25 31.119-18.638 31.728-34.17.705-17.937-13.762-32.942-26.236-29.083-7.944 2.457-18.036 10.179-27.459 14.44-12.632 5.71-25.213 17.351-38.848 14.847-19.032-3.496-24.037-37.023-43.32-38.645a18.655 18.655 0 0 0-2.053-.056z" style="fill:#fff;stroke:none;stroke-width:1px;stroke-linecap:butt;stroke-linejoin:miter;stroke-opacity:1"/></svg>
